poi/svg/1904.svg

<?xml version="1.0" encoding="UTF-8" standalone="no"?>
<svg
   xmlns:dc="http://purl.org/dc/elements/1.1/"
   xmlns:cc="http://creativecommons.org/ns#"
   xmlns:rdf="http://www.w3.org/1999/02/22-rdf-syntax-ns#"
   xmlns:svg="http://www.w3.org/2000/svg"
   xmlns="http://www.w3.org/2000/svg"
   xmlns:sodipodi="http://sodipodi.sourceforge.net/DTD/sodipodi-0.dtd"
   xmlns:inkscape="http://www.inkscape.org/namespaces/inkscape"
   inkscape:version="1.0 (4035a4fb49, 2020-05-01)"
   sodipodi:docname="1904.svg"
   id="svg20"
   version="1.2"
   viewBox="0 0 42.519639 42.519639"
   height="14.999999mm"
   width="14.999999mm">
  <metadata
     id="metadata24">
    <rdf:RDF>
      <cc:Work
         rdf:about="">
        <dc:format>image/svg+xml</dc:format>
        <dc:type
           rdf:resource="http://purl.org/dc/dcmitype/StillImage" />
        <dc:title>Qt SVG Document</dc:title>
      </cc:Work>
    </rdf:RDF>
  </metadata>
  <sodipodi:namedview
     inkscape:current-layer="svg20"
     inkscape:window-maximized="0"
     inkscape:window-y="0"
     inkscape:window-x="0"
     inkscape:cy="28.346482"
     inkscape:cx="28.346482"
     inkscape:zoom="5.8410537"
     showgrid="false"
     id="namedview22"
     inkscape:window-height="480"
     inkscape:window-width="1034"
     inkscape:pageshadow="2"
     inkscape:pageopacity="0"
     guidetolerance="10"
     gridtolerance="10"
     objecttolerance="10"
     borderopacity="1"
     bordercolor="#666666"
     pagecolor="#ffffff" />
  <title
     id="title2">Qt SVG Document</title>
  <desc
     id="desc4">Generated with Qt</desc>
  <defs
     id="defs6" />
  <g
     transform="translate(5.25984,5.25984)"
     id="g18"
     stroke-linejoin="bevel"
     stroke-linecap="square"
     fill-rule="evenodd"
     stroke-width="1"
     stroke="#000000"
     fill="none">
    <g
       id="g10"
       font-style="normal"
       font-weight="400"
       font-size="7.8px"
       font-family="'MS Shell Dlg 2'"
       stroke="none"
       fill-opacity="1"
       fill="#a61215">
      <path
         id="path8"
         d="M 37.2598,16 C 37.2598,27.7415 27.7415,37.2598 16,37.2598 4.25851,37.2598 -5.25984,27.7415 -5.25984,16 -5.25984,4.25851 4.25851,-5.25984 16,-5.25984 27.7415,-5.25984 37.2598,4.25851 37.2598,16"
         fill-rule="evenodd"
         vector-effect="non-scaling-stroke" />
    </g>
    <g
       id="g14"
       font-style="normal"
       font-weight="400"
       font-size="7.8px"
       font-family="'MS Shell Dlg 2'"
       transform="translate(16,13.1654)"
       stroke="none"
       fill-opacity="0.94902"
       fill="#ffffff">
      <path
         id="path12"
         d="M -10.0293,8.2251 H 9.45508 V 1.86328 H -10.0293 V 8.2251 m 1.72168,-3.00244 h 1.67969 V 6.94434 H -8.30762 V 5.22266 m 3.82129,1.72168 H -6.20801 V 5.22266 h 1.72168 v 1.72168 m 2.49854,-1.72168 h 1.721677 V 6.94434 H -1.98779 V 5.22266 M 1.8335,6.94434 H 0.153809 V 5.22266 H 1.8335 V 6.94434 M 3.9751,5.22266 H 5.65479 V 6.94434 H 3.9751 V 5.22266 M 7.77539,6.94434 H 6.05371 V 5.22266 h 1.72168 v 1.72168 m 0,-2.05762 H 6.05371 V 3.16504 H 7.77539 V 4.88672 M 3.9751,3.16504 H 5.65479 V 4.88672 H 3.9751 V 3.16504 M 1.8335,4.88672 H 0.153809 V 3.16504 H 1.8335 V 4.88672 M -1.98779,3.16504 h 1.721677 V 4.88672 H -1.98779 V 3.16504 M -4.48633,4.88672 H -6.20801 V 3.16504 h 1.72168 V 4.88672 M -8.30762,3.16504 h 1.67969 V 4.88672 H -8.30762 V 3.16504 M -10.0293,1.44336 H 9.45508 V -4.91846 H -10.0293 v 6.36182 m 1.72168,-2.96045 h 1.67969 V 0.183594 H -8.30762 V -1.51709 m 3.82129,1.700684 H -6.20801 V -1.51709 h 1.72168 v 1.700684 m 2.49854,-1.700684 h 1.721677 V 0.183594 H -1.98779 V -1.51709 M 1.8335,0.183594 H 0.153809 V -1.51709 H 1.8335 V 0.183594 M 3.9751,-1.51709 H 5.65479 V 0.183594 H 3.9751 V -1.51709 M 7.77539,0.183594 H 6.05371 V -1.51709 h 1.72168 v 1.700684 m 0,-2.141604 H 6.05371 V -3.6377 h 1.72168 v 1.67969 M 3.9751,-3.6377 h 1.67969 v 1.67969 H 3.9751 V -3.6377 M 1.8335,-1.95801 H 0.153809 V -3.6377 H 1.8335 v 1.67969 M -1.98779,-3.6377 h 1.721677 v 1.67969 H -1.98779 V -3.6377 m -2.49854,1.67969 H -6.20801 V -3.6377 h 1.72168 v 1.67969 M -8.30762,-3.6377 h 1.67969 v 1.67969 H -8.30762 V -3.6377 M -10.0293,8.70801 v 5.89989 0.4199 2.1416 H 3.11426 8.63623 9.39209 V 15.0278 14.6079 8.70801 H -10.0293 m 3.40137,5.03909 h -1.67969 v -1.6377 h 1.67969 v 1.6377 m 0,-2.1206 H -8.30762 V 9.94678 h 1.67969 v 1.67972 m 2.1416,2.1206 h -1.72168 v -1.6377 h 1.72168 v 1.6377 m 0,-2.1206 H -6.20801 V 9.94678 h 1.72168 v 1.67972 m 4.220217,2.1206 H -1.98779 v -1.6377 h 1.721677 v 1.6377 m 0,-2.1206 H -1.98779 V 9.94678 h 1.721677 V 11.6265 M 1.8335,13.7471 H 0.153809 V 12.1094 H 1.8335 v 1.6377 m 0,-2.1206 H 0.153809 V 9.94678 H 1.8335 V 11.6265 M 3.9751,9.94678 H 7.77539 V 14.6499 H 3.9751 V 9.94678 M 8.63623,16.4136 H 3.11426 v -0.6089 h 0.81885 v -0.6509 h 3.84228 v 0.6509 h 0.77686 v 0.6089 H 8.63623 M -11.3311,-9.13867 h 22.4869 v 3.77929 h -22.4869 v -3.77929"
         fill-rule="evenodd"
         vector-effect="none" />
    </g>
    <g
       id="g16"
       font-style="normal"
       font-weight="400"
       font-size="7.8px"
       font-family="'MS Shell Dlg 2'"
       stroke="none"
       fill-opacity="1"
       fill="#a61215" />
  </g>
</svg>

<?xml version="1.0" encoding="UTF-8" standalone="no"?>
<svg width="11.2889mm" height="11.2889mm"
 viewBox="0 0 32 32"
 xmlns="http://www.w3.org/2000/svg" xmlns:xlink="http://www.w3.org/1999/xlink"  version="1.2" baseProfile="tiny">
<title>Qt SVG Document</title>
<desc>Generated with Qt</desc>
<defs>
</defs>
<g fill="none" stroke="black" stroke-width="1" fill-rule="evenodd" stroke-linecap="square" stroke-linejoin="bevel" >

<g fill="#a61215" fill-opacity="1" stroke="none" transform="matrix(1,0,0,1,0,0)"
font-family="MS Shell Dlg 2" font-size="7.8" font-weight="400" font-style="normal" 
>
<path vector-effect="non-scaling-stroke" fill-rule="evenodd" d="M37.2598,16 C37.2598,27.7415 27.7415,37.2598 16,37.2598 C4.25851,37.2598 -5.25984,27.7415 -5.25984,16 C-5.25984,4.25851 4.25851,-5.25984 16,-5.25984 C27.7415,-5.25984 37.2598,4.25851 37.2598,16 "/>
</g>

<g fill="#ffffff" fill-opacity="0.94902" stroke="none" transform="matrix(1,0,0,1,16,13.1654)"
font-family="MS Shell Dlg 2" font-size="7.8" font-weight="400" font-style="normal" 
>
<path vector-effect="none" fill-rule="evenodd" d="M-10.0293,8.2251 L9.45508,8.2251 L9.45508,1.86328 L-10.0293,1.86328 L-10.0293,8.2251 M-8.30762,5.22266 L-6.62793,5.22266 L-6.62793,6.94434 L-8.30762,6.94434 L-8.30762,5.22266 M-4.48633,6.94434 L-6.20801,6.94434 L-6.20801,5.22266 L-4.48633,5.22266 L-4.48633,6.94434 M-1.98779,5.22266 L-0.266113,5.22266 L-0.266113,6.94434 L-1.98779,6.94434 L-1.98779,5.22266 M1.8335,6.94434 L0.153809,6.94434 L0.153809,5.22266 L1.8335,5.22266 L1.8335,6.94434 M3.9751,5.22266 L5.65479,5.22266 L5.65479,6.94434 L3.9751,6.94434 L3.9751,5.22266 M7.77539,6.94434 L6.05371,6.94434 L6.05371,5.22266 L7.77539,5.22266 L7.77539,6.94434 M7.77539,4.88672 L6.05371,4.88672 L6.05371,3.16504 L7.77539,3.16504 L7.77539,4.88672 M3.9751,3.16504 L5.65479,3.16504 L5.65479,4.88672 L3.9751,4.88672 L3.9751,3.16504 M1.8335,4.88672 L0.153809,4.88672 L0.153809,3.16504 L1.8335,3.16504 L1.8335,4.88672 M-1.98779,3.16504 L-0.266113,3.16504 L-0.266113,4.88672 L-1.98779,4.88672 L-1.98779,3.16504 M-4.48633,4.88672 L-6.20801,4.88672 L-6.20801,3.16504 L-4.48633,3.16504 L-4.48633,4.88672 M-8.30762,3.16504 L-6.62793,3.16504 L-6.62793,4.88672 L-8.30762,4.88672 L-8.30762,3.16504 M-10.0293,1.44336 L9.45508,1.44336 L9.45508,-4.91846 L-10.0293,-4.91846 L-10.0293,1.44336 M-8.30762,-1.51709 L-6.62793,-1.51709 L-6.62793,0.183594 L-8.30762,0.183594 L-8.30762,-1.51709 M-4.48633,0.183594 L-6.20801,0.183594 L-6.20801,-1.51709 L-4.48633,-1.51709 L-4.48633,0.183594 M-1.98779,-1.51709 L-0.266113,-1.51709 L-0.266113,0.183594 L-1.98779,0.183594 L-1.98779,-1.51709 M1.8335,0.183594 L0.153809,0.183594 L0.153809,-1.51709 L1.8335,-1.51709 L1.8335,0.183594 M3.9751,-1.51709 L5.65479,-1.51709 L5.65479,0.183594 L3.9751,0.183594 L3.9751,-1.51709 M7.77539,0.183594 L6.05371,0.183594 L6.05371,-1.51709 L7.77539,-1.51709 L7.77539,0.183594 M7.77539,-1.95801 L6.05371,-1.95801 L6.05371,-3.6377 L7.77539,-3.6377 L7.77539,-1.95801 M3.9751,-3.6377 L5.65479,-3.6377 L5.65479,-1.95801 L3.9751,-1.95801 L3.9751,-3.6377 M1.8335,-1.95801 L0.153809,-1.95801 L0.153809,-3.6377 L1.8335,-3.6377 L1.8335,-1.95801 M-1.98779,-3.6377 L-0.266113,-3.6377 L-0.266113,-1.95801 L-1.98779,-1.95801 L-1.98779,-3.6377 M-4.48633,-1.95801 L-6.20801,-1.95801 L-6.20801,-3.6377 L-4.48633,-3.6377 L-4.48633,-1.95801 M-8.30762,-3.6377 L-6.62793,-3.6377 L-6.62793,-1.95801 L-8.30762,-1.95801 L-8.30762,-3.6377 M-10.0293,8.70801 L-10.0293,14.6079 L-10.0293,15.0278 L-10.0293,17.1694 L3.11426,17.1694 L8.63623,17.1694 L9.39209,17.1694 L9.39209,15.0278 L9.39209,14.6079 L9.39209,8.70801 L-10.0293,8.70801 M-6.62793,13.7471 L-8.30762,13.7471 L-8.30762,12.1094 L-6.62793,12.1094 L-6.62793,13.7471 M-6.62793,11.6265 L-8.30762,11.6265 L-8.30762,9.94678 L-6.62793,9.94678 L-6.62793,11.6265 M-4.48633,13.7471 L-6.20801,13.7471 L-6.20801,12.1094 L-4.48633,12.1094 L-4.48633,13.7471 M-4.48633,11.6265 L-6.20801,11.6265 L-6.20801,9.94678 L-4.48633,9.94678 L-4.48633,11.6265 M-0.266113,13.7471 L-1.98779,13.7471 L-1.98779,12.1094 L-0.266113,12.1094 L-0.266113,13.7471 M-0.266113,11.6265 L-1.98779,11.6265 L-1.98779,9.94678 L-0.266113,9.94678 L-0.266113,11.6265 M1.8335,13.7471 L0.153809,13.7471 L0.153809,12.1094 L1.8335,12.1094 L1.8335,13.7471 M1.8335,11.6265 L0.153809,11.6265 L0.153809,9.94678 L1.8335,9.94678 L1.8335,11.6265 M3.9751,9.94678 L7.77539,9.94678 L7.77539,14.6499 L3.9751,14.6499 L3.9751,9.94678 M8.63623,16.4136 L3.11426,16.4136 L3.11426,15.8047 L3.93311,15.8047 L3.93311,15.1538 L7.77539,15.1538 L7.77539,15.8047 L8.55225,15.8047 L8.55225,16.4136 L8.63623,16.4136 M-11.3311,-9.13867 L11.1558,-9.13867 L11.1558,-5.35938 L-11.3311,-5.35938 L-11.3311,-9.13867"/>
</g>

<g fill="#a61215" fill-opacity="1" stroke="none" transform="matrix(1,0,0,1,0,0)"
font-family="MS Shell Dlg 2" font-size="7.8" font-weight="400" font-style="normal" 
>
</g>
</g>
</svg>
